packages/calcite-ui-icons/icons/new-complete-part-24.svg

<?xml version="1.0" encoding="UTF-8"?><svg id="icons" xmlns="http://www.w3.org/2000/svg" viewBox="0 0 24 24"><defs><style>.cls-1{fill:none;}.cls-2{fill:#6f6f6f;opacity:.5;}</style></defs><path d="M8.77148,21h-4.77148v-1h-1v-4h1v-1h7.00067l.00031,1h1.50208l1.49695-1.49695v-1.50305h-3l.00031,1h-7.00031v-1H1v3h1v4h-1v3h3v-1h4.34265l.42883-1ZM12,14h1v1h-1v-1ZM2,14h1v1h-1v-1ZM3,22h-1v-1h1v1ZM23.68988,10.46967l-1.42816-1.42816c-.38269-.38275-1.00323-.38275-1.38599,0l-10.30896,10.30896-1.75574,4.09619c-.05981.13959-.02863.30151.07874.40887s.26935.13855.40887.07874l4.09619-1.75568,10.32471-10.32404c.3905-.39056.3609-.99329-.02966-1.38489ZM10.34912,22.39557l.96124-2.24036,1.27997,1.28027-2.24121.96008ZM13.36407,20.79517l-1.41345-1.41376,7.46918-7.46991,1.41388,1.41412-7.4696,7.46954ZM22.6922,11.46704l-1.15149,1.15155-1.41388-1.41418,1.16827-1.1684c.07971-.07971.18817-.12396.3009-.1228s.22021.04767.29828.12897l.80396.83807c.15802.16467.15527.42548-.00604.58679Z"/><rect class="cls-1" width="24" height="24"/><path class="cls-2" d="M14,4V1h-3v2.06573l-7.40137,4.93427H1v3h3v-1h7v1h3v-3h-1v-4h1ZM3,10h-1v-1h1v1ZM11,9h-7v-.06573l7.40137-4.93427h.59863v4h-1v1ZM13,10h-1v-1h1v1ZM12,3v-1h1v1h-1Z"/></svg>

<svg xmlns="http://www.w3.org/2000/svg" viewBox="0 0 24 24"><path d="M8.771 21H4v-1H3v-4h1v-1h7l.001 1h1.502L14 14.503V13h-3v1H4v-1H1v3h1v4H1v3h3v-1h4.343zM12 14h1v1h-1zM2 14h1v1H2zm1 8H2v-1h1zm20.69-11.53-1.428-1.428a.98.98 0 0 0-1.386 0L10.566 19.35l-1.755 4.097a.371.371 0 0 0 .488.487l4.096-1.755L23.72 11.855c.39-.391.36-.994-.03-1.385M10.35 22.396l.96-2.24 1.28 1.28zm3.014-1.6-1.413-1.415 7.469-7.47 1.414 1.415zm9.328-9.329-1.151 1.152-1.414-1.415 1.168-1.168a.42.42 0 0 1 .6.006l.803.838a.42.42 0 0 1-.006.587"/><path d="M0 0h24v24H0z" style="fill:none"/><path d="M14 4V1h-3v2.066L3.599 8H1v3h3v-1h7v1h3V8h-1V4zM3 10H2V9h1zm8-1H4v-.066L11.401 4H12v4h-1zm2 1h-1V9h1zm-1-7V2h1v1z" style="fill:#6f6f6f;opacity:.5"/></svg>
